X:1
T:Étude No. 6 in A minor "Theme and Variations"
T:Étude No. 6 in A minor "Theme and Variations"
T:Grandes Études de Paganini, S. 141
T:Niccolò Paganini / Franz Liszt
C:Franz Liszt
%%score { ( 1 3 ) | ( 2 4 ) }
L:1/8
Q:1/4=128
M:2/4
K:C
V:1 treble nm="鋼琴" snm="Pno."
V:3 treble 
V:2 bass 
V:4 bass 
V:1
!p!"^Quasi Presto" !arpeggio!!wedge![EAca] z3/4 A/4 (A/c/B/A/) | %1
 !arpeggio!!wedge![Be^ge'] z3/4 E/4 (E/^G/^F/E/) | !arpeggio!!wedge![EAca] z3/4 A/4 (A/c/B/A/) | %3
 [B^ge'] z z2 | !arpeggio!!wedge![EAca] z3/4 A/4 (A/c/B/A/) | %5
 !arpeggio!!wedge![Be^ge'] z3/4 E/4 (E/^G/^F/E/) | !arpeggio!!wedge![EAca] z3/4 A/4 (A/c/B/A/) | %7
 [B^ge'] z z2 | !arpeggio!!wedge![ea^c'a'] z3/4 a/4 (a/_b/a/=g/) | %9
 !arpeggio!!wedge![Afaf'] z3/4 d/4 (d/f/e/d/) | !arpeggio!!wedge![dgbg'] z3/4 g/4 (g/a/g/f/) | %11
 !arpeggio!!wedge![Gege'] z3/4 c/4 (c/e/d/c/) | !arpeggio!!wedge![Bfbf'] z3/4 B/4 (B/d/c/B/) | %13
 !arpeggio!!wedge![Aeae'] z3/4 A/4 (A/c/B/A/) | !>!F2 E2 | (!>![EA]2 !wedge![ca]) z | %16
 !arpeggio!!wedge![ea^c'a'] z3/4 a/4 (a/_b/a/=g/) | !arpeggio!!wedge![Afaf'] z3/4 d/4 (d/f/e/d/) | %18
 !arpeggio!!wedge![dgbg'] z3/4 g/4 (g/a/g/f/) | !arpeggio!!wedge![Gege'] z3/4 c/4 (c/e/d/c/) | %20
 !arpeggio!!wedge![Bfbf'] z3/4 B/4 (B/d/c/B/) | !arpeggio!!wedge![Aeae'] z3/4 A/4 (A/c/B/A/) | %22
 !>!F2 E2 | (!>![EA]2 !wedge![ca]) z |]"^VAR. 1"!p!{/ca} (3.e'.c'.a(3.e.c.A | %25
{/^Ge} (3.b.^g.e(3.B.G.E |{/ca} (3.e'.c'.a(3.e.c.A | (3z .[^Ge].[B^g] .[ee'] z | %28
{/ca} (3.e'.c'.a(3.e.c.A |{/^Ge} (3.b.^g.e(3.B.G.E |{/ca} (3.e'.c'.a(3.e.c.A | %31
 (3z .[^Ge].[B^g] .[ee'] z | (6:4:6!arpeggio!.[a^c'a'].e'.c'.a.e.^c | %33
 (6:4:6z .[Ad].[df].[fa].[ad'].[d'f'] | (6:4:6!arpeggio!.[gbg'].d'.b.g.d.B | %35
 (6:4:6z .[Gc].[ce].[eg].[gc'].[c'e'] | (6:4:6.[bf'].[^gd'].[fb].[dg].[Bf].d | %37
{/ea} (6:4:6.e'.c'.a.e.c.A | (6:4:6z .[^DB].[A^d] z .[^Ge].[B^g] | %39
 (6:4:6z .[ca].[ec'] .[aa'] z z |]"^VAR. 2"!p! z2[K:bass]{/_B,,} (!^!A,,/=B,,/C,/D,/) | %41
 z2{/F,} (!^!E,/=D,/C,/B,,/) | z2{/_B,,} (!^!A,,/=B,,/C,/D,/) | z2{/F,} .E, z | %44
 z2[K:treble]{/_B,} (!^!A,/=B,/C/D/) | z2{/F} (!^!E/=D/C/B,/) | z2{/_B,} (!^!A,/=B,/C/D/) | %47
 z2{/F} .E z | z2{/_B} (!^!A/=G/F/E/) | z2{/_E} (!^!D/=E/F/D/) | z2{/_A} (!^!G/=F/E/D/) | %51
 z2{/_D} (!^!C/=D/E/C/) | z2{/=G} (!^!F/D/C/B,/) | z2{/F} (!^!E/C/B,/A,/) | %54
 z2{/C} (!^!=B,/F/E/^G,/) | z[K:bass] .[D,F,].[C,E,] z | z2 [E,G,^C]2 | z2 [F,A,F]2 | %58
 z2 [D,F,B,]2 | z2 [E,G,E]2 | z2 [D,^G,B,]2 | z2 ([E,A,C]2 | %62
[Q:1/4=100]"_rit." D^D E)[Q:1/4=54]"_." !fermata!z[Q:1/4=100]"^." |"_perdendosi" z2 [F,A,D] z | %64
 [E,A,C] z [D,F,A,] z | [C,E,A,] z [D,F,] z | [C,E,A,] z[Q:1/4=30]"^." !fermata!z2 |] %67
[K:treble][Q:1/4=128]"^VAR. 3"!f! (!>![A,A]/.[^D^F]/) z/ [A,A]/ [A,A]/[Cc]/[B,B]/[A,A]/ | %68
 (!>![Ee]/.[^GB]/) z/ [Ee]/ [Ee]/[=G=g]/[Ff]/[Ee]/ | %69
 (!>![A,A]/.[^D^F]/) z/ [A,A]/ [A,A]/[Cc]/[B,B]/[A,A]/ | %70
 (!>![^G,^G]/.B,/) z/ ^D/ (!>![G,B,F]E/) z/ | (!>![Aa]/.[^d^f]/) z/ [Aa]/ [Aa]/[cc']/[Bb]/[Aa]/ | %72
 (!>![ee']/.[^gb]/) z/ [ee']/ [ee']/[=g=g']/[ff']/[ee']/ | %73
 (!>![Aa]/.[^d^f]/) z/ [Aa]/ [Aa]/[cc']/[Bb]/[Aa]/ | %74
 ([^G^g]/.[Bb]/) z/ [^d^d']/ (!>![ff'][ee']/) z/ | %75
 (!>![gaa']/.[^c'e']/) z/ [aa']/ [aa']/[_b_b']/[aa']/[gg']/ | %76
 (!>![ff']/.[ad']/) z/ [^c^c']/ [dd']/[ff']/[_e_e']/[dd']/ | %77
 (!>![fgg']/.[bd']/) z/ [gg']/ [gg']/[_a_a']/[gg']/[ff']/ | %78
 (!>![ee']/.[gc']/) z/ [Bb]/ [cc']/[_e_e']/[_d_d']/[cc']/ | ([ff']/.[^gb]/) z/ B/ (!>!B/d/c/B/) | %80
 ([ee']/.[ac']/) z/ A/ (!>!A/c/B/A/) | !>![Dd]/[Ff]/[Ee]/[^D^d]/ [Ee]/[B,B]/[=D=d]/[Cc]/ | %82
 ([B,B]2 z) z |]!p!"^VAR. 4" a/-[aa']/[^g^g']/[=g=g']/[^f^f']/[=f=f']/[ee']/[^d^d']/ | %84
 [ff']/[ee']/[^d^d']/[ff']/ eB | a/-[aa']/[^g^g']/[=g=g']/[^f^f']/[=f=f']/[ee']/[^d^d']/ | %86
 [ff']/[ee']/[^d^d']/[ff']/ .[ee'] .e | a/-[aa']/[^g^g']/[=g=g']/[^f^f']/[=f=f']/[ee']/[^d^d']/ | %88
 [ff']/[ee']/[^d^d']/[ff']/ eB | a/-[aa']/[^g^g']/[=g=g']/[^f^f']/[=f=f']/[ee']/[^d^d']/ | %90
 [ff']/[ee']/[^d^d']/[ff']/ .[ee'] .e |!f! a/-[aa']/[^g^g']/[=g=g']/[^f^f']/[=f=f']/[ee']/[dd']/ | %92
 ^c'/e'/a/c'/ d'/a/f/d/ | g/-[gg']/[^f^f']/[=f=f']/[ee']/[_e_e']/[dd']/[cc']/ | %94
 b/d'/g/b/ c'/g/e/c/ | %95
!p! (f/4-.[ff']/4) z/ [ee']/[^d^d']/[I:staff +1] !wedge!=d/[I:staff -1][^c^c']/[=c=c']/[Bb]/ | %96
 (e/4-.[ee']/4) z/ [^d^d']/[=d=d']/[I:staff +1] !wedge!c/[I:staff -1][Bb]/[_B_b]/[Aa]/ | %97
 z/ [Ee]/[^D^d]/[=D=d]/ z/ [Cc]/[B,B]/[_B,_B]/ | z/ (F/E/^D/=D/C/B,/_B,/) |] %99
"^VAR. 5"!p! !wedge!A, ([af']/[fc']/[I:staff +1][Ae]/[Ec]/) (3(C/B,/A,/ | %100
 !>!!wedge!^G,)[I:staff -1] ([^g^d']/[^db]/[I:staff +1][^Ge]/[EB]/) (3(E,/^F,/G,/ | %101
 !>!!wedge!A,)[I:staff -1] ([af']/[fc']/[I:staff +1][Ae]/[Ec]/) (3(C/B,/A,/ | %102
 !>!!wedge!^G,)[I:staff -1] ([^g^d']/[^db]/[I:staff +1][^Ge]/[EB]/)[I:staff -1] z | %103
[I:staff +1]{/E,^F,^G,} !wedge!A,[I:staff -1] ([af']/[fc']/[I:staff +1][Ae]/[Ec]/) (3(C/B,/A,/ | %104
 !>!!wedge!^G,)[I:staff -1] ([^g^d']/[^db]/[I:staff +1][^Ge]/[EB]/) (3(E,/^F,/G,/ | %105
 !>!!wedge!A,)[I:staff -1] ([af']/[fc']/[I:staff +1][Ae]/[Ec]/) (3(C/B,/A,/ | %106
 !>!!wedge!^G,)[I:staff -1] ([^g^d']/[^db]/[I:staff +1][^Ge]/[EB]/)[I:staff -1] z | %107
[I:staff +1]{/A,B,C} !>!!wedge!^C!8va(![I:staff -1] ([e'_b']/[_bg']/!8va)![I:staff +1][ea]/[Ag]/) (3(A,/=B,/^C/ | %108
 !>!!wedge!D)[I:staff -1] ([ae']/[ed']/[I:staff +1][Af]/[Fd]/) (3(E/D/C/ | %109
 !>!!wedge!B,)[I:staff -1] ([d'_a']/[_af']/[I:staff +1][dg]/[Gf]/) (3(G,/A,/B,/ | %110
 !>!!wedge!C)[I:staff -1] ([g^d']/[^dc']/[I:staff +1][Ge]/[Ec]/) (3(B,/C/^C/ | %111
 !>!!wedge!D)!8va(![I:staff -1] ([d'=b']/[bf']/!8va)![I:staff +1][d_b]/[_Bf]/) (3(_B,/C/D/ | %112
 !>!!wedge!E)!8va(![I:staff -1] ([=b^g']/[^gd']/!8va)![I:staff +1][ca]/[Ae]/) (3(F/E/_E/ | %113
 !>!!wedge!D)[I:staff -1] ([af']/[fb]/[^Ge]/[EB]/)[I:staff +1] (3(D/C/B,/ | %114
 !>!!wedge!A,)!8va(![I:staff -1] ([e'c'']/c'/ [e'a']/a/)!8va)! z |] %115
!f!"^VAR. 6"!8va(! !^![e'c''e'']3 [d'b'd'']/[c'a'c'']/ | %116
 [b^g'b']/[af'a']/[^ge'g']/[fd'f']/!8va)! [ec'e']/[dbd']/[cac']/[B^gb]/ | [cac']3 [dbd']/[ec'e']/ | %118
 [dbd']/[cac']/[B^gb]/[Afa]/ [^Geg]2 |!8va(! !^![e'c''e'']3 [d'b'd'']/[c'a'c'']/ | %120
 [b^g'b']/[af'a']/[^ge'g']/[fd'f']/!8va)! [ec'e']/[dbd']/[cac']/[^gb]/ | [cac']3 [dbd']/[ec'e']/ | %122
 [dd']/[cc']/[Bb]/[Aa]/ [^G^g]2 | (!^![^c-e^c'-]2 .[cac'])!8va(! [d=bd']/[ec'e']/ | %124
!<(! [fd'f']/[ge'g']/[af'a']/[bg'b']/[^c'a'^c'']/[d'b'd'']/[e'c''e'']/[f'd''f'']/!8va)!!<)! | %125
 (!^![B-db-]2 .[Bgb])!8va(! [c=ac']/[dbd']/ | %126
!<(! [ec'e']/[fd'f']/[ge'g']/[af'a']/[bg'b']/[c'a'c'']/[d'b'd'']/[e'c''e'']/!<)! | %127
 [f'^g'b'f'']/[d'd'']/[bb']/[^gg']/ !>![fgbf']/!<(![^d^d']/[ee']/!<)![=d=d']/ | %128
 [c'^d'^f'c'']/[aa']/[^ff']/[^dd']/!8va)! !>![c^d^fc']/!<(![^A^a]/[Bb]/[=A=a]/!<)! | %129
 !>![=FAB=f]/[^D^d]/[Ee]/[=D=d]/ !>![^C^c]/[B,B]/!>![=C=c]/[B,B]/ | %130
 [A,A]2- [A,A][Q:1/4=30]"^." !fermata!z |]: %131
[Q:1/4=128]"^VAR. 7"!p! (3(e'/f'/e'/ !>!c'2) (3(a/b/a/) | %132
 (3(b/c'/b/) (3(^g/a/g/) (3(e/f/e/) !wedge![DEB] | (3(e'/f'/e'/ !>!c'2)!<(! (3(C/D/C/) | %134
 E!<)! (3(A/B/A/) (3(^G/A/G/) z :|!f! (3(e'/f'/e'/ !>!^c'2) (3(a/_b/a/) | %136
 (3(d'/e'/d'/)[I:staff +1] (3!^![^CA]/[I:staff -1]([E_B]/A/)[I:staff +1] (3!^![A,F]/[I:staff -1]([DG]/F/) z | %137
 (3(d'/e'/d'/ b2) (3(g/a/g/) | %138
 (3(c'/d'/c'/)[I:staff +1] (3!^![B,G]/[I:staff -1]([DA]/G/)[I:staff +1] (3!^![G,E]/[I:staff -1]([CF]/E/) z | %139
 (3(d'/e'/d'/ !>!f'2)"^brioso" (3(!>![DF^G]/4E/4.D/4) z/ | %140
 (3(c'/d'/c'/ !>!e'2)"^brioso" (3(!>![CE]/4D/4.C/4) z/ | %141
!p!"_scherzando" (3([F=B]/4[Ac]/4.[FB]/4) z/ (3([Af]/4[Bg]/4.[Af]/4) z/ (3([^Ge]/4[Bf]/4.[Ge]/4) z/ (3([db]/4[ec']/4.[db]/4) z/ | %142
 (3([ca]/4[eb]/4.[ca]/4) z/!8va(! (3([af']/4[d'g']/4.[af']/4) z/ .[c'e'c'']!8va)! z |] %143
!f!"_fuocoso"[Q:1/4=144]"^Animato""^VAR. 8" !wedge![A,CE] z/ .E.[DE].[CE]/ | %144
 z/ .[B,E].[B,EB].[A,E].[B,E]/ |"_sempre stacc." !wedge![A,CE] z/ E!<(![DE][CE]/ | %146
 z/ [B,E]!<)![B,^DA][B,E^G]E/ | !wedge![EAce] z/ [Ee][Ede][Ece]/ | z/ [EBe][Bb][EAe][EBe]/ | %149
 !wedge![EAce] z/ [Ee]!<(![Ede][Ece]/ | z/ [EBe]!<)![A^da][^Ge^g][GBe]/ | %151
 !wedge![EA^ce] z/ [EAde][EAe][Ece]/ | z/ [dfd']!<(![ege'][faf']!<)![dfd']/ | %153
 !wedge![DGBd] z/ [DGcd][DGd][DBd]/ | z/ [ec'e']!<(![fc'f'][gc'g']!<)![ec'e']/ | %155
 !wedge![f^gbf'] z/ [d=gbd'][egbe']"_più rinforz."[^fgbf']/ | z/ [eae'][d^fgd'][ceac'][^ce_b^c']/ | %157
 z/ [df_bd'][ac'f'a'][ac'e'a'][^g=be'^g']/ | (!^![ac'e'a']2 !wedge![cea]) z |] %159
"^VAR. 9"!p!"^staccato (quasi pizzicato)" !arpeggio!.c'/.a/.e/.c/ .A/.e/.c/.A/ | %160
"_sempre stacc." !arpeggio!!>!b/^g/e/d'/ b/e/g/e/ | !arpeggio!!>!c'/a/e/c/ A/e/c/A/ | %162
 !arpeggio!!>!b/^g/e/e/ B/^G/[I:staff +1] !>!!wedge!E | %163
!8va(![I:staff -1] !arpeggio!!>!c''/a'/e'/c'/ a/e'/c'/a/ | %164
 !arpeggio!!>!b'/^g'/e'/d''/ b'/e'/g'/e'/ | !arpeggio!!>!c''/a'/e'/c'/ a/e'/c'/a/ | %166
 !arpeggio!!>!b'/^g'/e'/b/!8va)! ^g/B/e |!mf! !arpeggio!!>!e'/^c'/a/e/ z/ A/G/E/ | %168
 F/D/d'/a/[I:staff +1]f/d/[I:staff -1]F/D/ | !arpeggio!!>!d'/b/g/f/ z/ B/F/D/ | %170
 E/C/c'/g/[I:staff +1]e/c/[I:staff -1]E/C/ |!p! b/a/^g/f/e/d/c/B/ | %172
 A/=G/[I:staff +1] F/[I:staff -1][Ec]/[I:staff +1]D/[I:staff -1][CA]/[I:staff +1]B,/[I:staff -1][A,E]/ | %173
 z [Ba]/[df]/ z [Bb]/[d^g]/ | [ca]/[I:staff +1][EA]/[I:staff -1]C/A,/ z2 |] %175
[Q:1/4=72]"^Più Moderato""^VAR. 10"!p!!8va(! (a'3 e'/c''/ | b'/a'/^g'/^f'/ e'/f'/g'/e'/) | %177
 (a'2{/b'a'^g'} a'/b'/c''/d''/ | ^d''>e'' e'2) | (a'3 e'/c''/ | b'/a'/^g'/^f'/ e'/f'/g'/e'/) | %181
 (a'2{/b'a'^g'} a'/b'/c''/d''/ | ^d''>e'' e'2) | !>!a'2- (a'/e''/^c''/a'/ | %184
 g'/e'/^c'/ z/ z [ad'f']) | g'2- (g'/d''/b'/g'/ | f'/d'/b/!8va)![I:staff +1]g/ f/e/d/c/) | %187
[I:staff -1] !>![bf']2- ([bf']/d'/b/a/ | ^g/e/d/B/ c/e/a/=g/ | f/d'/b/a/ ^g/!8va(!b'/^g'/e'/) | %190
{/^g'} (a'2 !wedge!a)!8va)! z |] %191
!f![Q:1/4=60]"^VAR. 11" (3z/4 (E,/4A,/4(3[CE]/4[K:treble]E/4A/4(3[ce]/4e/4a/4(3[c'e']/4!8va(!e'/4a'/4"_sim."(3[d''e'']/4^g'/4e'/4!8va)!(3[d'e']/4^g/4e/4(3[ce]/4A/4E/4 [CE]/) | %192
 !wedge![^G,B,E]/ !>![e^gbe']!>![=gbd'=g'](!>![fbd'f'][ebd'e']/) | %193
[K:bass] (3z/4 (E,/4A,/4(3[CE]/4[K:treble]E/4A/4(3[ce]/4e/4a/4(3[c'e']/4!8va(!e'/4a'/4(3[d''e'']/4^g'/4e'/4!8va)!(3[d'e']/4^g/4e/4(3[ce]/4A/4E/4 [CE]/) | %194
 !wedge![^G,E]/4 [Ee]/4!<(![Ff]/4[^F^f]/4[=G=g]/4[^G^g]/4[Aa]/4[^A^a]/4[Bb]/4[cc']/4[^c^c']/4[dd']/4[^d^d']/4[ee']/4[=f=f']/4[ee']/4!<)! | %195
[K:bass]!f! (3z/4 (E,/4A,/4(3[CE]/4[K:treble]E/4A/4(3[ce]/4e/4a/4(3[c'e']/4!8va(!e'/4a'/4(3[d''e'']/4^g'/4e'/4!8va)!(3[d'e']/4^g/4e/4(3[ce]/4A/4E/4 [CE]/) | %196
 !wedge![^G,B,E]/ !>![e^gbe']!>![=gbd'=g'](!>![fbd'f'][ebd'e']/) | %197
[K:bass] (3z/4 (E,/4A,/4(3[CE]/4[K:treble]E/4A/4(3[ce]/4e/4a/4(3[c'e']/4!8va(!e'/4a'/4(3[d''e'']/4^g'/4e'/4!8va)!(3[d'e']/4^g/4e/4(3[ce]/4A/4E/4 [CE]/) | %198
 !wedge![^G,E]/4 [Ee]/4!<(![Ff]/4[^F^f]/4[=G=g]/4[^G^g]/4[Aa]/4[^A^a]/4[Bb]/4[cc']/4[^c^c']/4[dd']/4[^d^d']/4[ee']/4[=f=f']/4[ee']/4!<)! | %199
 (3z/4!<(! (^C/4E/4(3A/4A/4^c/4(3[g_b]/4!8va(!b/4^c'/4(3[g'_b']/4c'/4b/4!<)!(3[f'a']/4c'/4a/4!8va)!(3[fa]/4c/4A/4(3[eg]/4_B/4A/4(3[EG]/4_B,/4A,/4 | %200
 !wedge![DF]/)!<(! (3(^c/4d/4e/4(3f/4g/4a/4!8va(!(3^c'/4d'/4e'/4(3f'/4g'/4a'/4(3^c''/4!<)!d''/4e''/4 !wedge![d''f'']/)!8va)! z/ | %201
 (3z/4!<(! (=B,/4D/4(3G/4G/4B/4(3[f_a]/4!8va(!a/4b/4(3[f'_a']/4b/4a/4!<)!(3[e'g']/4b/4g/4!8va)!(3[eg]/4B/4G/4(3[df]/4_A/4G/4(3[DF]/4_A,/4G,/4 | %202
 !wedge![CE]/)!<(! (3(B/4c/4d/4(3e/4f/4g/4!8va(!(3b/4c'/4d'/4(3e'/4f'/4g'/4(3b'/4!<)!c''/4d''/4 !wedge![c''e'']/)!8va)!"_sempre più di" (3(C/4D/4E/4) | %203
"_forza" !^!F/ [ff']/[Bb]/ (3(B,/4C/4D/4) !^!_E/ [_e_e']/[Aa]/ (3(A,/4B,/4C/4) | %204
 !^!_D/ [_d_d']/[Gg]/ (3(G,/4_A,/4_B,/4) !^!=B,/ [Bb]/[Ff]/ (3(F,/4_A,/4_B,/4) | %205
 !^!=B,/ [Bb]/[Ff]/ (3(F,/4=A,/4^A,/4) !^!B,/ [Bb]/[Ff]/ (3(=A,/4G,/4F,/4) | %206
 !^!E,!^![Beab] !^!E!^![e^gbe'] | %207
!ff! (3z/4[K:bass] E,/4A,/4(3[CE]/4[K:treble]E/4A/4(3[ce]/4e/4a/4(3[c'e']/4!8va(!e'/4a'/4(3[c''e'']/4a'/4e'/4!8va)!(3[c'e']/4a/4e/4(3[ce]/4A/4E/4[K:bass](3[CE]/4A,/4E,/4 | %208
 (3z/4 E,/4A,/4(3[^CE]/4[K:treble]E/4A/4(3[^ce]/4e/4a/4(3[^c'e']/4!8va(!e'/4a'/4(3[^c''e'']/4a'/4e'/4!8va)!(3[c'e']/4a/4e/4(3[ce]/4A/4E/4[K:bass](3[^CE]/4A,/4E,/4 | %209
 (3z/4 F,/4A,/4(3[DF]/4[K:treble]F/4A/4(3[df]/4f/4a/4(3[d'f']/4!8va(!f'/4a'/4(3[d''f'']/4a'/4f'/4!8va)!(3[d'f']/4a/4f/4(3[df]/4A/4F/4[K:bass](3[DF]/4A,/4F,/4 | %210
[K:treble] z/ [Bdb]/z/[dfd']/ z/ [f^gf']/z/[ege']/ | %211
!ff! (3z/4[K:bass] E,/4A,/4(3[CE]/4[K:treble]E/4A/4(3[ce]/4e/4a/4(3[c'e']/4!8va(!e'/4a'/4(3[c''e'']/4a'/4e'/4!8va)!(3[c'e']/4a/4e/4(3[ce]/4A/4E/4[K:bass](3[CE]/4A,/4E,/4 | %212
!ff! (3z/4 E,/4A,/4(3[^CE]/4[K:treble]E/4A/4(3[^ce]/4e/4a/4(3[^c'e']/4!8va(!e'/4a'/4(3[^c''e'']/4a'/4e'/4!8va)!(3[c'e']/4a/4e/4(3[ce]/4A/4E/4[K:bass](3[^CE]/4A,/4E,/4 | %213
 (3z/4 F,/4A,/4(3[DF]/4[K:treble]F/4A/4(3[df]/4f/4a/4(3[d'f']/4!8va(!f'/4a'/4(3[d''f'']/4a'/4f'/4!8va)!(3[d'f']/4a/4f/4(3[df]/4A/4F/4[K:bass](3[DF]/4A,/4F,/4 | %214
 z/[K:treble] [Bdb]/z/[dfd']/ z/ [f^gf']/z/[ege']/ || %215
[K:A][I:staff +1] (24:16:24A,,/4C,/4E,/4A,/4"_."[I:staff -1]C/4E/4A/4c/4!<(!e/4a/4c'/4e'/4a'/4!<)!e'/4c'/4a/4e/4c/4A/4E/4C/4[I:staff +1]A,/4E,/4C,/4 | %216
 (26:16:26A,,/4C,/4E,/4A,/4[I:staff -1]C/4E/4A/4c/4!<(!e/4a/4c'/4e'/4a'/4!<)!c''/4a'/4e'/4c'/4a/4e/4c/4A/4E/4C/4[I:staff +1]A,/4E,/4C,/4 | %217
 (29:16:29A,,/4C,/4E,/4G,/4"_."[I:staff -1]C/4E/4A/4c/4!<(!e/4a/4c'/4!8va(!e'/4a'/4c''/4!<)!=f''/4e''/4c''/4a'/4e'/4c'/4!8va)!a/4e/4c/4A/4E/4C/4[I:staff +1]A,/4E,/4C,/4 | %218
"_ben in tempo" !trill(!TA,,2 A,,/8_B,,/8=B,,/8=C,/8^C,/8D,/8^D,/8E,/8=F,/8E,/8D,/8=D,/8C,/8=C,/8=B,,/8_B,,/8 | %219
 !wedge!A,,[I:staff -1] !^![Acea]!^![ac'e'a'] z |] %220
V:2
 !arpeggio!!wedge![A,,E,A,C] z z2 | !arpeggio!!wedge![E,B,E^G] z z2 | %2
 !arpeggio!!wedge![A,,E,A,C] z z2 | !arpeggio![E,B,E^G] z z2 | !arpeggio!!wedge![A,,E,A,C] z z2 | %5
 !arpeggio!!wedge![E,B,E^G] z z2 | !arpeggio!!wedge![A,,E,A,C] z z2 | !arpeggio![E,B,E^G] z z2 | %8
 !arpeggio!!wedge![A,,E,A,^C] z z2 | !arpeggio!!wedge![D,A,DF] z z2 | %10
 !arpeggio!!wedge![G,,D,G,B,] z z2 | !arpeggio!!wedge![C,G,CE] z z2 | %12
 !arpeggio!!wedge![D,F,B,F] z z2 | !arpeggio!!wedge![E,CE] z z2 | !>!F,2 E,2 | %15
 (!>![A,C]2 !wedge![EA]) z | !arpeggio!!wedge![A,,E,^C] z[K:treble] [^CEA] z | %17
[K:bass] !arpeggio!!wedge![D,A,F] z[K:treble] [DFA] z | %18
[K:bass] !arpeggio!!wedge![G,,D,B,] z[K:treble] [B,DG] z | %19
[K:bass] !arpeggio!!wedge![C,G,E] z[K:treble] [EG] z |[K:bass] !arpeggio!!wedge![D,_B,F] z [DF] z | %21
 !arpeggio!!wedge![E,CE] z [CE] z | !>!F,2 E,2 | (!>![A,C]2 !wedge![EA]) z |] %24
 !wedge!A,z/A,/ (A,/C/B,/A,/) | !wedge!Ez/E,/ (E,/=G,/F,/E,/) | !wedge!A,z/A,/ (A,/C/B,/A,/) | %27
 (!>!E2 .E,) z | !wedge!A,z/A,/ (A,/C/B,/A,/) | !wedge!Ez/E,/ (E,/=G,/F,/E,/) | %30
 !wedge!A,z/A,/ (A,/C/B,/A,/) | (!>!E2 .E,) z |[K:treble] !arpeggio!!wedge!Az/A/ (A/_B/A/G/) | %33
[K:bass] !arpeggio!!wedge!Fz/D/ (D/F/E/D/) |[K:treble] !arpeggio!!wedge!Gz/G/ (G/A/G/F/) | %35
[K:bass] !arpeggio!!wedge!Ez/C/ (C/E/D/C/) | !arpeggio!!wedge!Fz/B,/ (B,/D/C/B,/) | %37
 !arpeggio!!wedge!Ez/A,/ (A,/C/B,/A,/) | (F,>B,) (E,/E/=D/B,/) | (!>!A,2[K:treble] .[Ec]) z |] %40
[K:bass] (A,,/^G,,/A,,/G,,/) z2 | (E,/^D,/E,/D,/) z2 | (A,,/^G,,/A,,/G,,/) z2 | %43
 (E,/^D,/E,/D,/) z2 | (A,/^G,/A,/G,/) z2 | (E/^D/E/D/) z2 | (A,/^G,/A,/G,/) z2 | (E/^D/E/D/) z2 | %48
[K:treble] (A/^G/A/G/) z2 |[K:bass] (D/^C/D/C/) z2 |[K:treble] (G/^F/G/F/) z2 | %51
[K:bass] (C/B,/C/B,/) z2 | (F/E/F/E/) z2 | (E/^D/E/D/) z2 | (_B,/A,/B,/A,/) ^G, z | %55
 (A,/^G,/A,/G,/) A, z | (A,,/^G,,/A,,/G,,/){/_B,,} (!>!A,,/=G,,/F,,/E,,/) | %57
 (D,,/^C,,/D,,/C,,/){/_E,,} (!>!D,,/=E,,/F,,/D,,/) | %58
 (G,,/^F,,/G,,/F,,/){/_A,,} (!>!G,,/=F,,/E,,/D,,/) | %59
 (C,,/B,,,/C,,/B,,,/){/_D,,} (!>!C,,/=D,,/E,,/C,,/) | %60
 (F,,/E,,/F,,/E,,/){/=G,,} (F,,/D,,/C,,/B,,,/) | %61
 (E,,/^D,,/E,,/D,,/){/F,,} (!>!E,,/C,,/B,,,/A,,,/) | %62
 (B,,,/^A,,,/B,,,/A,,,/) (C,,/B,,,/!fermata!F,,/E,,/) | %63
 A,,,/^G,,,/A,,,/G,,,/{/_B,,,} A,,,/G,,,/A,,,/G,,,/ | %64
 A,,,/^G,,,/A,,,/G,,,/{/_B,,,} A,,,/G,,,/A,,,/G,,,/ | %65
 A,,,/^G,,,/A,,,/G,,,/{/_B,,,} A,,,/G,,,/A,,,/G,,,/ | A,,, z !fermata!z2 |] %67
"_ten." z z/ [^D,^F,C]/[D,F,C]/ z/ ([A,,,A,,] | [^G,,,^G,,][B,,,B,,] [E,,G,,E,]2) | %69
"_ten." z z/ [^D,^F,C]/[D,F,C]/ z/ ([A,,,A,,] | [B,,,B,,][^D,,^D,]!>![F,,F,][E,,E,]) | %71
"_ten." z z/ [^D,^F,C]/[D,F,C]/ z/ ([A,,,A,,] | [^G,,,^G,,][B,,,B,,] [E,,G,,E,]2) | %73
"_ten." z z/ [^D,^F,C]/[D,F,C]/ z/ ([A,,,A,,] | [B,,,B,,][^D,,^D,]!>![F,,F,][E,,E,]/) z/ | %75
"_ten." [A,,E,^C]2[K:treble] z[K:bass] ([^C,,E,] |!<(! [D,,F,][E,,G,][F,,^G,]!<)![^F,,A,]) | %77
"_ten." [G,,D,B,]2[K:treble] z[K:bass] ([B,,,D,] |!<(! [C,,E,][D,,F,][_E,,^F,]!<)![=E,,G,]) | %79
 !wedge![F,,B,,D,^G,] z/ D/ (D/B,/C/D/) | !wedge![E,,C,A,] z/ C/ (!>!C/A,/B,/C/) | %81
 [B,,F,A,]2 [E,,^G,]2 |!>(!!ped! E,/=G,/F,/E,/- E,!>)!!ped-up! z |] %83
 .[A,CA]/z/.[Ec]/z/.[DB]/z/.[CA]/ z/ | .[E,^G,E]/z/.[B,=G]/z/.[A,F]/z/.[^G,E]/ z/ | %85
 .[A,CA]/z/.[Ec]/z/.[DB]/z/.[CA]/ z/ | .[A,CF] z .[E,^G,E] z | %87
 .[A,CA]/z/.[Ec]/z/.[DB]/z/.[CA]/ z/ | .[E,^G,E]/z/.[B,=G]/z/.[A,F]/z/.[^G,E]/ z/ | %89
 .[A,CA]/z/.[Ec]/z/.[DB]/z/.[CA]/ z/ | .[A,CF] z .[E,^G,E] z | %91
 [^CA]/z/.[D_B]/z/.[=CA]/z/.[_B,G]/ z/ |[K:bass] .[A,F]/z/.[G,E]/z/.[F,D]/z/.[D,F]/ z/ | %93
[K:treble] [B,G]/z/.[C_A]/z/.[B,G]/z/.[_A,F]/ z/ |[K:bass] .[G,E]/z/.[F,D]/z/.[E,C]/z/.[C,E]/ z/ | %95
 !wedge![D,^G,B,F] z[K:treble] z2 |[K:bass] !wedge![C,A,E] z[K:treble] z2 | %97
[K:bass] !wedge![A,F]/ z/ z !wedge![^G,E]/ z/ z | (!^!A,/F,/E,/^D,/=D,/C,/B,,/_B,,/) |] %99
 !wedge!A,, z[K:treble] z/ z/[K:bass] (3(C,/B,,/A,,/ | %100
 !wedge!^G,,) z[K:treble] z[K:bass] (3(E,,/^F,,/^G,,/ | %101
 !wedge!A,,) z[K:treble] z[K:bass] (3(C,/B,,/A,,/ | !wedge!^G,,) z[K:treble] z z | %103
[K:bass]{/E,,^F,,^G,,} !wedge![A,,,A,,] z[K:treble] z/ z/[K:bass] (3(C,/B,,/A,,/ | %104
 !wedge![^G,,,^G,,]) z[K:treble] z[K:bass] (3(E,,/^F,,/^G,,/ | %105
 !wedge![A,,,A,,]) z[K:treble] z[K:bass] (3(C,/B,,/A,,/ | !wedge![^G,,,^G,,]) z[K:treble] z z | %107
[K:bass]{/A,,B,,C,} !wedge![^C,,^C,] z[K:treble] z[K:bass] (3(A,,/=B,,/^C,/ | %108
 !wedge![D,,D,]) z[K:treble] z[K:bass] (3(E,/D,/C,/ | %109
 !wedge![B,,,B,,]) z[K:treble] z[K:bass] (3(G,,/A,,/B,,/ | %110
 !wedge![C,,C,]) z[K:treble] z[K:bass] (3(B,,/C,/^C,/ | %111
 !wedge![D,,D,]) z[K:treble] z[K:bass] (3(_B,,/C,/D,/ | %112
 !wedge![E,,E,]) z[K:treble] z[K:bass] (3(F,/E,/_E,/ | %113
 !wedge![D,,D,]) (3(B,,/C,/D,/ !>!!wedge![E,,E,]) (3(D,/C,/B,,/ | %114
 !wedge![A,,,A,,])[K:treble] .[Ec].[CA] z |] %115
[K:bass] [A,,,C,,]/[B,,,D,,]/[C,,E,,]/[D,,F,,]/[E,,^G,,]/[F,,A,,]/[G,,B,,]/[A,,C,]/ | %116
[B,,D,]/[C,E,]/[D,F,]/[E,^G,]/[F,A,]/[G,B,]/[A,C]/[B,D]/ | %117
!<(! [A,C]/[B,D]/[CE]/[DF]/!<)!!>(! [DF]/[CE]/!>)![B,D]/[A,C]/ | %118
 [B,D]/[A,C]/[^G,B,]/[F,A,]/ [E,G,]2 | %119
 [A,,,A,,]/[B,,,B,,]/[C,,C,]/[D,,D,]/[E,,E,]/[F,,F,]/[^G,,^G,]/[A,,A,]/ | %120
[B,,B,]/[C,C]/[D,D]/[E,E]/[F,F]/[^G,^G]/[K:treble][A,A]/[B,B]/ | %121
 [A,A]/[^G,^G]/[F,F]/[E,E]/[K:bass] [F,F]/[E,E]/[D,D]/[C,C]/ | %122
 [B,,B,]/[A,,A,]/[^G,,^G,]/[F,F]/ [E,E]2 | !>![_B,_B]/[A,A]/[G,G]/[E,E]/[^C,^C]/[_B,,B,]/ A,/G,/ | %124
 [D,F,]/[^C,E,]/[B,,D,]/[A,,C,]/[G,,B,,]/[F,,A,,]/[E,,G,,]/[D,,F,,]/ | %125
 !>![_A,_A]/[G,G]/[F,F]/[D,D]/[B,,B,]/[_A,,A,]/ G,/F,/ | %126
 [C,E,]/[B,,D,]/[A,,C,]/[G,,B,,]/[F,,A,,]/[E,,G,,]/[D,,F,,]/[C,,E,,]/ | %127
 [D,,^G,,B,,D,]/[F,,F,]/[G,,^G,]/[B,,B,]/ !>![D,=G,B,D]/[^D,^D]/[E,E]/[F,F]/ | %128
 [A,,,^D,,^F,,A,,]/[C,,C,]/[D,,^D,]/[F,,^F,]/ !>![A,,D,F,A,]/[^A,,^A,]/[B,,B,]/[C,C]/ | %129
 !>![=D,A,B,]/^D,/E,/F,/ !>![E,^G,E]!>![E,G,=D] | (!^![D,F,]2 [C,E,]) !fermata!z |]: %131
 (3(E/F/E/ !>!C2) (3(A,/B,/A,/) | (3(B,/C/B,/) (3(^G,/A,/G,/) (3(E,/F,/E,/) !wedge![A,,G,] | %133
 (3(E/F/E/ !>!C2) (3(A,/B,/A,/) | (3(^G,/A,/=G,/) (3(^F,/G,/=F,/) (3(E,/F,/E,/) !wedge!E,, :| %135
 (3(E/F/E/ !>!^C2) (3(A,/_B,/A,/) | (3(D/E/D/)[K:treble] z z[K:bass] !arpeggio!!wedge![F,A,D] | %137
 (3(D/E/D/ B,2) (3(G,/=A,/G,/) | (3(C/D/C/)[K:treble] z z[K:bass] !arpeggio!!wedge![E,G,C] | %139
 (3(D/E/D/ !>!F2)[K:treble] (3(!>!B/4c/4.B/4) z/ | %140
[K:bass] (3(C/D/C/ !>!E2)[K:treble] (3(!>!A/4_B/4.A/4) z/ |[K:bass] D, [DF] E, [E^G] | %142
 [A,EA] .[D,,A,,].[A,,,A,,] z |] !wedge![A,,E,] .[C,E,].[B,,E,].[A,,E,] | %144
 .[^G,,E,].[E,,E,].[^F,,E,].[G,,E,] | !wedge![A,,E,] [C,E,][B,,E,][A,,E,] | %146
 [^G,,E,][F,,^D,][E,,E,][E,^G,] | !wedge![A,,A,] [C,C][B,,B,][A,,A,] | %148
 [^G,,^G,][E,,E,][^F,,^F,][G,,G,] | !wedge![A,,A,][C,C][B,,B,][A,,A,] | %150
 [^G,,^G,][F,,F,][E,,E,] [=G,B,E] | [A,,A,][B,,B,][^C,^C][A,,A,] | [D,D][K:treble] [^C_B][DA][FA] | %153
[K:bass] !wedge![G,,G,][A,,A,][B,,B,][G,,G,] | [C,C][K:treble] [DG][EG][CG] | %155
[K:bass] !wedge![D,D][K:treble] [F^GB][EGB][DGB] | [CAc][B,F^G][A,EA][K:bass][=G,^CE] | %157
 !wedge![F,DF][^D,A,CD][E,A,CE][E,^G,B,E] | (!^![A,,E,A,]2[K:treble] !wedge![CEA]) z |] %159
[K:bass] .A,/.E/.E,/.E/ .C/.E/.A,/.E/ | ^G,/E/E,/E/ G,/E/B,/E/ | A,/E/E,/E/ C/E/A,/E/ | %162
 ^G,/E/E,/E/ G,/B,/ z | A,/E/E,/E/ C/E/A,/E/ | ^G,/E/E,/E/ G,/E/B,/E/ | A,/E/E,/E/ C/E/A,/E/ | %166
 ^G,/E/E,/E/ B,/^G/E |[K:treble] ^C/A/A,/A/ !wedge!^c/ z/ z |[K:bass] [D,A,] z[K:treble] z2 | %169
 B,/G/G,/G/ !wedge!d/ z/ z |[K:bass] [C,G,] z[K:treble] z2 | [^G,DF] z z2 | [CE][K:bass] z z2 | %173
 F/D,/ z ^G/C,/ z | z2 A,, z |] !trill(!Te4 | e4 | e4 | e4 | !trill(!Te4 | e4 | e4 | e4 | %183
 (e/4f/4e/4f/4e/4f/4e/4f/4 e) z | z/ z/ z/ a/ g/f/e/d/ | (f/4e/4f/4e/4f/4e/4f/4e/4 f) z | z4 | %187
 (f/4e/4f/4e/4f/4e/4f/4e/4 f) z | z"_sopra" .[^ge'].[ae'].[^c'e'] | .[d'f'] z .[ed'] z | %190
 [ac']2 z2 |][K:bass]{/E,,^F,,^G,,} [A,,,A,,]/z/[C,,C,]/z/[B,,,B,,]/z/[A,,,A,,]/ z/ | %192
 (3z/4 (^G,,,/4B,,,/4(3E,,/4^G,,/4B,,/4(3E,/4^G,/4B,/4[K:treble](3E/4^G/4B/4(3e/4B/4G/4(3E/4[K:bass]B,/4^G,/4(3E,/4B,,/4G,,/4(3E,,/4B,,,/4G,,,/4) | %193
 [A,,,A,,]/z/[C,,C,]/z/[B,,,B,,]/z/[A,,,A,,]/ z/ | %194
 !wedge![E,,B,,E,]/4 E,/4F,/4^F,/4=G,/4^G,/4A,/4^A,/4B,/4C/4^C/4D/4^D/4E/4=F/4E/4 | %195
{/E,,^F,,^G,,} [A,,,A,,]/z/[C,,C,]/z/[B,,,B,,]/z/[A,,,A,,]/ z/ | %196
 (3z/4 (^G,,,/4B,,,/4(3E,,/4^G,,/4B,,/4(3E,/4^G,/4B,/4[K:treble](3E/4^G/4B/4(3e/4B/4G/4(3E/4[K:bass]B,/4G,/4(3E,/4B,,/4G,,/4(3E,,/4B,,,/4G,,,/4) | %197
 [A,,,A,,]/z/[C,,C,]/z/[B,,,B,,]/z/[A,,,A,,]/ z/ | %198
 !wedge![E,,B,,E,]/4 E,/4F,/4^F,/4=G,/4^G,/4A,/4^A,/4B,/4C/4^C/4D/4^D/4E/4=F/4E/4 | %199
 [^C,E,A,]/z/!>![C,G,_B,]/z/[C,F,A,]/z/[C,E,G,]/ z/ | %200
 !wedge![D,,F,]/ .[G,_B,E]/.[A,DF]/[K:treble].[G_Be]/.[Adf]/.[g_be']/ .[ad'f']/ z/ | %201
[K:bass] [=B,,D,G,]/z/!>![B,,F,_A,]/z/[B,,E,G,]/z/[B,,D,F,]/ z/ | %202
 !wedge![C,,E,]/ .[F,_A,D]/.[G,CE]/[K:treble].[F_Ad]/.[Gce]/.[f_ad']/ .[gc'e']/[K:bass] (3(C,/4D,/4E,/4) | %203
 [F,,F,]/ [B,D^G]/[B,DG]/ [B,,,B,,]/[_E,,_E,]/ [A,C^F]/[A,CF]/ [A,,,A,,]/ | %204
[_D,,_D,]/ [G,_B,E]/[G,B,E]/ [G,,,G,,]/[=B,,,=B,,]/ [F,_A,=D]/[F,A,D]/ [F,,,F,,]/ | %205
[B,,,B,,]/ [F,=A,D]/[F,=A,D]/ [F,,,F,,]/[B,,,B,,]/ [F,A,^D]/[F,A,D]/ (3(A,,/4G,,/4F,,/4) | %206
 !^!E,,!^![E,A,B,E] !^![E,,E,]!^![E,^G,B,E] | %207
 !wedge![A,,,C,,E,,A,,] z z/ z/4 E,,/4 (E,,/4G,,/4F,,/4E,,/4) | %208
 !wedge![A,,,^C,,E,,A,,] z z/ z/4 A,,/4 (A,,/4=C,/4_B,,/4A,,/4) | %209
 !wedge![D,,F,,A,,D,] z z/ z/4 D,,/4 (D,,/4^C,,/4D,,/4E,,/4) | %210
 z/ [^G,DF]/z/[B,^FG]/ z/ [DGB]/z/[G,B,E]/ | %211
 !wedge![A,,,C,,E,,A,,] z z/ z/4 E,,/4 (E,,/4G,,/4F,,/4E,,/4) | %212
 !wedge![A,,,^C,,E,,A,,] z z/ z/4 A,,/4 (A,,/4=C,/4_B,,/4A,,/4) | %213
 !wedge![D,,F,,A,,D,] z z/ z/4 D,,/4 (D,,/4^C,,/4D,,/4E,,/4) | %214
 z/ [^G,DF]/z/[B,^FG]/ z/ [DGB]/z/[G,B,E]/ || %215
[K:A] (24:16:24A,,,/4C,,/4E,,/4A,,/4C,/4E,/4A,/4C/4!<(!E/4[K:treble]A/4c/4e/4a/4!<)!e/4c/4A/4E/4[K:bass]C/4A,/4E,/4C,/4A,,/4E,,/4C,,/4 | %216
 (26:16:26A,,,/4C,,/4E,,/4A,,/4C,/4E,/4A,/4C/4!<(!E/4[K:treble]A/4c/4e/4a/4!<)!c'/4a/4e/4c/4A/4E/4[K:bass]C/4A,/4E,/4C,/4A,,/4E,,/4C,,/4 | %217
 (29:16:29A,,,/4C,,/4E,,/4G,,/4C,/4E,/4A,/4C/4E/4[K:treble]A/4c/4e/4a/4c'/4=f'/4e'/4c'/4a/4e/4c/4A/4E/4[K:bass]C/4A,/4E,/4C,/4A,,/4E,,/4C,,/4 | %218
 !trill(!TA,,,2!<(! A,,,/8_B,,,/8=B,,,/8=C,,/8^C,,/8D,,/8^D,,/8E,,/8!<)!=F,,/8E,,/8D,,/8=D,,/8C,,/8=C,,/8B,,,/8_B,,,/8 | %219
 !wedge!A,,, !^![A,,C,E,A,]!^![A,CEA] z |] %220
V:3
 x4 | x4 | x4 | (e2 !wedge!E) z | x4 | x4 | x4 | (e2 !wedge!E) z | x4 | x4 | x4 | x4 | x4 | x4 | %14
 (F>^d) (E/e/=d/B/) | x4 | x4 | x4 | x4 | x4 | x4 | x4 | (F>^d) (E/e/=d/B/) | x4 |] x4 | x4 | x4 | %27
 x4 | x4 | x4 | x4 | x4 | x4 | x4 | x4 | x4 | x4 | x4 | x4 | x4 |] x2[K:bass] x2 | x4 | x4 | x4 | %44
 x2[K:treble] x2 | x4 | x4 | x4 | x4 | x4 | x4 | x4 | x4 | x4 | x4 | x[K:bass] x3 | x4 | x4 | x4 | %59
 x4 | x4 | x4 | [F,A,]2 [E,^G,] x | x4 | x4 | x4 | x4 |][K:treble] x4 | x4 | x4 | x4 | x4 | x4 | %73
 x4 | x4 | x4 | x4 | x4 | x4 | x3/2 ^G/ G2 | x3/2 E/ E2 | x4 | E/=G/F/E/- !wedge![A,EA] x |] x4 | %84
 x2 e'/b/^g/e/ | x4 | x4 | x4 | x2 e'/b/^g/e/ | x4 | x4 | x4 | ^cc dA | x4 | BB cG | x4 | x4 | x4 | %98
 x4 |] x4 | x4 | x4 | x4 | x4 | x4 | x4 | x4 | x!8va(! x!8va)! x2 | x4 | x4 | x4 | %111
 x!8va(! x!8va)! x2 | x!8va(! x!8va)! x2 | x4 | x!8va(! x2!8va)! x |]!8va(! x4 | x2!8va)! x2 | x4 | %118
 x4 |!8va(! x4 | x2!8va)! x2 | x4 | x4 | x3!8va(! x | x4!8va)! | x3!8va(! x | x4 | x4 | %128
 x2!8va)! x2 | x4 | (!^![DF]2 [CE]) x |]: x2 !wedge![ce] x | x4 | x2 !wedge![ce] E | %134
 (3(B,/C/B,/) ^DE x :| x2 !wedge![^ce] x | x4 | x2 !wedge![Bd] x | x4 | x2 !wedge![f^g] x | %140
 x2 !wedge![ea] x | x4 | x!8va(! x2!8va)! x |] x4 | x4 | x4 | x4 | x4 | x4 | x4 | x4 | x4 | x4 | %153
 x4 | x4 | x4 | x4 | x4 | x4 |] e x3 | e x3 | e x3 | e x3 |!8va(! [c'e'] x3 | [be'] x3 | %165
 [c'e'] x3 | [be'] x!8va)! x2 | a2 x2 | x4 | g2 x2 | x4 | x/ f'/ x/ d'/ x/ b/ x/ ^g/ | x/ e/ x3 | %173
 x4 | x4 |]!8va(! [ac']4 | [be']4 | [c'e']4 | [=d'^g']4 | [ac']4 | [be']4 | [c'e']4 | [=d'^g']4 | %183
 [=g^c']2 x2 | z2 z x | [gd']2 x2 | x3/2!8va)! x3/2 !wedge![gc'e'] | x4 | x4 | x5/2!8va(! x3/2 | %190
 x3!8va)! x |] x2/3[K:treble] x!8va(! x5/6!8va)! x3/2 | x4 | %193
[K:bass] x2/3[K:treble] x!8va(! x5/6!8va)! x3/2 | x4 | %195
[K:bass] x2/3[K:treble] x!8va(! x5/6!8va)! x3/2 | x4 | %197
[K:bass] x2/3[K:treble] x!8va(! x5/6!8va)! x3/2 | x4 | x7/6!8va(! x4/3!8va)! x3/2 | %200
 x/ G/d/!8va(!g/ d'/g'/ a'/!8va)! x/ | x7/6!8va(! x4/3!8va)! x3/2 | %202
 x/ F/c/!8va(!f/ c'/f'/ g'/!8va)! x/ | x4 | x4 | x4 | x4 | %207
 x/6[K:bass] x/[K:treble] x!8va(! x5/6!8va)! x[K:bass] x/ | %208
 x2/3[K:treble] x!8va(! x5/6!8va)! x[K:bass] x/ | x2/3[K:treble] x!8va(! x5/6!8va)! x[K:bass] x/ | %210
[K:treble] x4 | x/6[K:bass] x/[K:treble] x!8va(! x5/6!8va)! x[K:bass] x/ | %212
 x2/3[K:treble] x!8va(! x5/6!8va)! x[K:bass] x/ | x2/3[K:treble] x!8va(! x5/6!8va)! x[K:bass] x/ | %214
 x/[K:treble] x7/2 ||[K:A] x4 | x241/60 | x97/64!8va(! x79/64!8va)! x79/64 | x4 | x4 |] %220
V:4
 x4 | x4 | x4 | x4 | x4 | x4 | x4 | x4 | x4 | x4 | x4 | x4 | x4 | x4 | (F,>[A,^D]) (E,>[^G,=D]) | %15
 x4 | x2[K:treble] x2 |[K:bass] x2[K:treble] x2 |[K:bass] x2[K:treble] x2 | %19
[K:bass] x2[K:treble] x2 |[K:bass] x4 | x4 | (F,>[A,^D]) (E,>[^G,=D]) | x4 |] x4 | x4 | x4 | x4 | %28
 x4 | x4 | x4 | x4 |[K:treble] !arpeggio![A,E] x3 |[K:bass] !arpeggio!D, x3 | %34
[K:treble] !arpeggio![G,D] x3 |[K:bass] !arpeggio!C, x3 | !arpeggio![D,^G,] x3 | !arpeggio!C, x3 | %38
 !>!F,2 E,2 | x2[K:treble] x2 |][K:bass] F,,2 x2 | [E,,^G,,]2 x2 | F,,2 x2 | [E,,^G,,]2 x2 | %44
 F,2 x2 | [E,^G,]2 x2 | F,2 x2 | [E,^G,]2 x2 |[K:treble] [^CE]2 x2 |[K:bass] [F,A,]2 x2 | %50
[K:treble] [B,D]2 x2 |[K:bass] [E,G,]2 x2 | [D,^G,]2 x2 | [C,A,]2 x2 | [D,F,]2 E, x | x4 | x4 | %57
 x4 | x4 | x4 | x4 | x4 | x4 | x4 | x4 | x4 | x4 |] !^![C,,C,]2 x2 | x4 | !^![C,,C,]2 x2 | x4 | %71
 !^![C,,C,]2 x2 | x4 | !^![C,,C,]2 x2 | x4 | x3/2[K:treble] [^CEA]/[CEA]/ z/[K:bass] x | x4 | %77
 x3/2[K:treble] [B,DG]/[B,DG]/ z/[K:bass] x | x4 | x3/2 F/ !>!F2 | x4 | x4 | %82
 [A,,D,^G,]2 !wedge![A,,C,] x |] x4 | x4 | x4 | x4 | x4 | x4 | x4 | x4 | .A, x3 |[K:bass] x4 | %93
[K:treble] .G, x3 |[K:bass] x4 | x2[K:treble] x2 |[K:bass] x2[K:treble] x2 |[K:bass] x4 | x4 |] %99
 x2[K:treble] x[K:bass] x | x2[K:treble] x[K:bass] x | x2[K:treble] x[K:bass] x | x2[K:treble] x2 | %103
[K:bass] x2[K:treble] x[K:bass] x | x2[K:treble] x[K:bass] x | x2[K:treble] x[K:bass] x | %106
 x2[K:treble] x2 |[K:bass] x2[K:treble] x[K:bass] x | x2[K:treble] x[K:bass] x | %109
 x2[K:treble] x[K:bass] x | x2[K:treble] x[K:bass] x | x2[K:treble] x[K:bass] x | %112
 x2[K:treble] x[K:bass] x | x4 | x[K:treble] x3 |][K:bass] x4 | x4 | x4 | x4 | x4 | %120
 x3[K:treble] x | x2[K:bass] x2 | x4 | x3 A,, | x4 | x3 G,, | x4 | x4 | x4 | x4 | A,,2- A,, x |]: %131
 x2 !wedge![A,,E,] x | x4 | x2 !wedge![A,,E,] x | x4 :| x2 !wedge![A,,G,_B,] x | %136
 x[K:treble] x2[K:bass] x | x2 !wedge![G,,F,_A,] x | x[K:treble] x2[K:bass] x | %139
 x2 !wedge![D,B,][K:treble] x |[K:bass] x2 !wedge![C,A,][K:treble] x |[K:bass] x4 | x4 |] x4 | x4 | %145
 x4 | x4 | x4 | x4 | x4 | x4 | x4 | x[K:treble] x3 |[K:bass] x4 | x[K:treble] x3 | %155
[K:bass] x[K:treble] x3 | x3[K:bass] x | x4 | x2[K:treble] x2 |][K:bass] x4 | x4 | x4 | x4 | x4 | %164
 x4 | x4 | x4 |[K:treble] x4 |[K:bass] x2[K:treble] x2 | x4 |[K:bass] x2[K:treble] x2 | x4 | %172
 x[K:bass] x3 | x4 | x4 |] A4 | [Ad]4 | [Ac]4 | !trill)![AB]4 | A4 | [Ad]4 | [Ac]4 | %182
 !trill)![AB]4 | A2 x2 | x4 | B2 x2 | x4 | [^Gd]2 x2 | x4 | x4 | x4 |] %191
[K:bass] z/ A,/ x/ C/ x/ B,/ x/ A,/ | x3/2[K:treble] x7/6[K:bass] x4/3 | %193
 z/ A,/ x/ C/ x/ B,/ x/ A,/ | x4 | z/ A,/ x/ C/ x/ B,/ x/ A,/ | x3/2[K:treble] x7/6[K:bass] x4/3 | %197
 z/ A,/ x/ C/ x/ B,/ x/ A,/ | x4 | z/ ^C,,/ x/ A,,/ x/ C,,/ x/ A,,/ | x3/2[K:treble] x5/2 | %201
[K:bass] z/ B,,,/ x/ G,,/ x/ B,,,/ x/ G,,/ | x3/2[K:treble] x2[K:bass] x/ | x4 | x4 | x4 | x4 | %207
 x7/8 A,/4 (A,/4C/4B,/4A,/4) !wedge!E x7/8 | x7/8 A,/4 (A,/4=C/4_B,/4A,/4) !wedge!G x7/8 | %209
 x7/8 A,/4 (A,/4C/4_B,/4A,/4) !wedge!F x7/8 | [F,,F,][^G,,^G,] [B,,B,][E,,E,] | %211
 x7/8 A,/4 (A,/4C/4B,/4A,/4) !wedge!E x7/8 | x7/8 A,/4 (A,/4=C/4_B,/4A,/4) !wedge!G x7/8 | %213
 x7/8 A,/4 (A,/4C/4_B,/4A,/4) !wedge!F x7/8 | [F,,F,][^G,,^G,] [B,,B,][E,,E,] || %215
[K:A] x3/2[K:treble] x4/3[K:bass] x7/6 | x67/48[K:treble] x37/24[K:bass] x | %217
 x79/64[K:treble] x57/32[K:bass] x31/32 | x4 | x4 |] %220

